X: 302
T:Sporting Peggy
T:Pretty Peg
T:Bill Clancy's delight
R:Reel
O:Scotland, Ireland
B: Kerr's Second p17
B:Kerr's Fourth p10
B:O'Neill's 1465
S:Kerr's Fourth
Z:Transcription, minor arr., chords:Mike Long
M:C|
L:1/8
K:D
(3(ABc)|:"D"d2 (fd) "A"(eA) (3(DFA)|"D"d2 (fd) "A"(3(efg) (fe)|\
"D"d2 (fd) "A"(eA) (DF)|"G"GFED "A"CEEA:|
"D"(3(FED) (AD) "(G)"BD"D"AD|"D"(3(FED) (AD) "A"CEEG|\
"D"(3(FED) (AD) "(G)"BD"D"AD|"A"A,CEG "D"FDDG|
"D"(3(FED) (dD) cDBD|"G"(3(GFE) (3(FED) "A"CEEA|\
"D"defd "G"edcB|"A"AGFE "D"D2|]

